tools/download-figma-icons/icons/outlined-large/tenant.svg

<svg width="64" height="64" viewBox="0 0 64 64" fill="none" xmlns="http://www.w3.org/2000/svg">
<path fill-rule="evenodd" clip-rule="evenodd" d="M56.8752 60.8887C57.0962 60.8887 57.2772 60.7087 57.2772 60.4857V25.2157C57.2772 25.0997 57.2272 24.9897 57.1392 24.9137C57.1382 24.9127 57.1372 24.9118 57.1362 24.9109C57.1343 24.9092 57.1325 24.9077 57.1312 24.9057L52.8582 21.1377C52.5352 20.8527 52.3502 20.4437 52.3502 20.0127V9.41172H46.5982V12.2957C46.5982 12.8847 46.2532 13.4207 45.7152 13.6627C45.1782 13.9047 44.5482 13.8097 44.1062 13.4207L32.3942 3.09072C32.3242 3.03072 32.2342 2.99972 32.1412 2.99972C32.0472 2.99972 31.9502 3.03272 31.8742 3.09872L7.14724 24.9057C7.05024 24.9897 7.00024 25.0997 7.00024 25.2157V60.4857C7.00024 60.7087 7.18024 60.8887 7.40224 60.8887H56.8752ZM55.3502 19.3367L59.1112 22.6517C59.8522 23.2977 60.2772 24.2327 60.2772 25.2157V60.4857C60.2772 62.3627 58.7512 63.8887 56.8752 63.8887H7.40224C5.52624 63.8887 4.00024 62.3627 4.00024 60.4857V25.2157C4.00024 24.2307 4.42624 23.2957 5.17224 22.6477L29.8982 0.840718C31.1802 -0.271282 33.0992 -0.269282 34.3702 0.833718L43.5982 8.97172V7.91172C43.5982 7.08372 44.2702 6.41172 45.0982 6.41172H53.8502C54.6782 6.41172 55.3502 7.08372 55.3502 7.91172V19.3367ZM41.8192 48.2522C41.9482 48.2522 42.0272 48.1862 42.0702 48.1302C42.1142 48.0742 42.1592 47.9832 42.1292 47.8582L40.7862 42.4262C40.1302 39.7712 37.7332 37.9172 34.9592 37.9172H29.3122C26.5342 37.9172 24.1372 39.7742 23.4842 42.4322L22.1492 47.8592C22.1182 47.9832 22.1642 48.0742 22.2072 48.1302C22.2512 48.1862 22.3302 48.2522 22.4582 48.2522H41.8192ZM37.9132 29.1422C37.9132 25.9582 35.3222 23.3682 32.1382 23.3682C28.9552 23.3682 26.3652 25.9582 26.3652 29.1422C26.3652 32.3252 28.9552 34.9162 32.1382 34.9162C35.3222 34.9162 37.9132 32.3252 37.9132 29.1422ZM38.1632 35.5042C40.8662 36.5212 42.9772 38.7892 43.6982 41.7052L45.0412 47.1382C45.2872 48.1362 45.0652 49.1712 44.4322 49.9802C43.7992 50.7882 42.8462 51.2522 41.8192 51.2522H22.4582C21.4312 51.2522 20.4792 50.7882 19.8452 49.9812C19.2132 49.1722 18.9902 48.1382 19.2362 47.1422L20.5702 41.7152C21.2902 38.7922 23.4042 36.5192 26.1122 35.5022C24.4242 33.9012 23.3652 31.6462 23.3652 29.1422C23.3652 24.3042 27.3002 20.3682 32.1382 20.3682C36.9762 20.3682 40.9132 24.3042 40.9132 29.1422C40.9132 31.6472 39.8522 33.9032 38.1632 35.5042Z" fill="black"/>
</svg>

<svg xmlns="http://www.w3.org/2000/svg" width="64" height="64" fill="none" viewBox="0 0 64 64"><path fill="currentColor" fill-rule="evenodd" d="M56.875 60.889c.221 0 .402-.18.402-.403v-35.27a.4.4 0 0 0-.14-.305l-.006-.005-4.273-3.768a1.5 1.5 0 0 1-.508-1.125V9.412h-5.752v2.884a1.499 1.499 0 0 1-2.492 1.125L32.394 3.09a.4.4 0 0 0-.253-.09.4.4 0 0 0-.267.099L7.147 24.906a.4.4 0 0 0-.147.31v35.27c0 .223.18.403.402.403zM55.35 19.337l3.761 3.315a3.4 3.4 0 0 1 1.166 2.564v35.27a3.406 3.406 0 0 1-3.402 3.403H7.402A3.406 3.406 0 0 1 4 60.486v-35.27c0-.985.426-1.92 1.172-2.568L29.898.84A3.425 3.425 0 0 1 34.37.834l9.228 8.138v-1.06a1.5 1.5 0 0 1 1.5-1.5h8.752a1.5 1.5 0 0 1 1.5 1.5zM41.82 48.252a.3.3 0 0 0 .25-.122.31.31 0 0 0 .06-.272l-1.344-5.432c-.656-2.655-3.053-4.509-5.827-4.509h-5.647c-2.778 0-5.175 1.857-5.828 4.515L22.15 47.86a.3.3 0 0 0 .058.271.31.31 0 0 0 .251.122zm-3.907-19.11a5.78 5.78 0 0 0-5.775-5.774 5.78 5.78 0 0 0-5.773 5.774 5.78 5.78 0 0 0 5.773 5.774 5.78 5.78 0 0 0 5.775-5.774m.25 6.362c2.703 1.017 4.814 3.285 5.535 6.201l1.343 5.433a3.3 3.3 0 0 1-.609 2.842 3.3 3.3 0 0 1-2.613 1.272H22.46a3.3 3.3 0 0 1-2.614-1.27 3.3 3.3 0 0 1-.609-2.84l1.334-5.427a8.91 8.91 0 0 1 5.542-6.213 8.74 8.74 0 0 1-2.747-6.36c0-4.838 3.935-8.774 8.773-8.774s8.775 3.936 8.775 8.774a8.74 8.74 0 0 1-2.75 6.362" clip-rule="evenodd"/></svg>
